symbolia/scalable/status/network-wireless-error.svg

<?xml version="1.0" encoding="UTF-8" standalone="no"?>
<svg
   height="24"
   viewBox="0 0 24 24"
   width="24"
   version="1.1"
   id="svg4"
   sodipodi:docname="network-wireless-error.svg"
   inkscape:version="1.1 (c68e22c387, 2021-05-23)"
   xmlns:inkscape="http://www.inkscape.org/namespaces/inkscape"
   xmlns:sodipodi="http://sodipodi.sourceforge.net/DTD/sodipodi-0.dtd"
   xmlns="http://www.w3.org/2000/svg"
   xmlns:svg="http://www.w3.org/2000/svg">
  <defs
     id="defs8" />
  <sodipodi:namedview
     id="namedview6"
     pagecolor="#ffffff"
     bordercolor="#666666"
     borderopacity="1.0"
     inkscape:pageshadow="2"
     inkscape:pageopacity="0.0"
     inkscape:pagecheckerboard="0"
     showgrid="false"
     inkscape:zoom="33.541667"
     inkscape:cx="12.014907"
     inkscape:cy="12.014907"
     inkscape:window-width="1920"
     inkscape:window-height="1016"
     inkscape:window-x="0"
     inkscape:window-y="0"
     inkscape:window-maximized="1"
     inkscape:current-layer="svg4" />
  <path
     id="path2"
     d="M 12 3 C 7.41 3 3.860625 4.5298438 0.890625 6.5898438 C 0.400625 6.9198438 0.29992187 7.5907812 0.66992188 8.0507812 L 10.449219 20.089844 C 11.249219 21.069844 12.750781 21.079844 13.550781 20.089844 L 23.330078 8.0703125 C 23.700078 7.6103125 23.599375 6.939375 23.109375 6.609375 C 20.139375 4.539375 16.59 3 12 3 z M 12 6 A 1 1 0 0 1 13 7 A 1 1 0 0 1 12 8 A 1 1 0 0 1 11 7 A 1 1 0 0 1 12 6 z M 12 10 C 12.55 10 13 10.45 13 11 L 13 15 C 13 15.55 12.55 16 12 16 C 11.45 16 11 15.55 11 15 L 11 11 C 11 10.45 11.45 10 12 10 z " />
</svg>

<svg xmlns="http://www.w3.org/2000/svg" height="24" viewBox="0 0 24 24" width="24"><path d="M12 3C7.41 3 3.86 4.53.89 6.59c-.49.33-.59 1-.22 1.46l9.78 12.04c.8.98 2.3.99 3.1 0l9.78-12.02c.37-.46.27-1.13-.22-1.46C20.14 4.54 16.59 3 12 3zm0 13c-.55 0-1-.45-1-1v-4c0-.55.45-1 1-1s1 .45 1 1v4c0 .55-.45 1-1 1zm-1-8V6h2v2h-2z"/></svg>
